X: 1
T: Leksands Sk\"ankl\aat
%C: Arr: Lille Bror S\"oderlundh
M: 2/4
L: 1/16
Z: 2010 John Chambers <jc:trillian.mit.edu>
S: printed MS, with handwritten chords, code NMS 3062
N: \251 1943 by Dalarnas Spelmansf\"orbund
N: \251 assigned 1949 to Nordiska Musicf\"orlaget, Stockholm
K: Dm
A2 \
| "Dm"(A2f2) f2ed | "Am"e2(ef) (e2A2) \
| "Dm"(A2d2) "Am"d2c=B | c2(cd) (c2A2) \
| "Dm"(A2f2) f2ed | "Am"e2(ef) (e2A2) \
| "Dm"(A2d2) "Am"d2c=B | c2(cd) (c2A2) |
| "Dm"(A2f2) f2ed | "Gm"g2ga (ge)fg \
| "Dm"a2ab "Am"a2ab | "Dm"(ag)fe d2([aA][gA]) \
| [f2A2]ed "Am"(ed)c2 | "Dm"[d6D6] :: A2 \
| "Dm"f2ag f2ed | "Am"(cd)(cB) "Dm"(AB)(AG) |
| "Dm"(FG)(FD) "Am"(EF)(ED) | "Am"[E6A,6] A2 \
| "Dm"f2ag f2ed | "Am"(cd)(cB) "Dm"(AB)(AG) \
| "Dm"(FG)(FD) "Am"(EF)(ED) | "Am"[E6A,6] ag \
| "Dm"f2ed "Am"(ed)=c2 | "Dm"[d6D6] :|
